X: 305731
M: 2/4
L: 1/16
K: C
edcB AGAB | c2G2 c2Bc | d2G2 d2cd | e2c2 gec"^D.C."G |]
EGc2 {d}cBcd | c2GA _B2AG | Acd2 {e}d^cde | d2A=B c2BA |\


